dist/images/src/logo-shutterfly.svg

<svg width="139" height="35" viewBox="0 0 139 35" fill="none" xmlns="http://www.w3.org/2000/svg">
<path fill-rule="evenodd" clip-rule="evenodd" d="M138.978 7.74108L136.074 7.74408L136.084 18.6111C136.089 21.6091 134.36 22.7021 132.1 22.7471C129.843 22.7021 128.649 21.2481 128.644 18.2761L128.642 7.75208H125.765L125.773 18.2821C125.781 24.1271 128.609 25.7921 132.108 25.7921C134.082 25.7921 135.433 24.9331 136.092 24.1441L136.089 26.7871C136.036 28.7791 135.389 30.7831 134.197 31.4141C133.07 32.0021 132.227 31.8511 131.911 31.8411V34.9691C131.911 34.9691 134.066 35.2351 135.954 34.1621C137.775 33.1111 139.001 29.9301 138.995 26.5781L138.978 7.74108ZM27.17 7.67008C25.16 7.67008 23.786 8.54008 23.11 9.31008L23.095 0.457079L20.144 0.462079L20.166 25.7101L23.124 25.7021L23.113 15.5481C23.113 12.5651 24.873 10.7551 27.175 10.7081C29.485 10.7521 30.705 12.9081 30.709 15.9001L30.719 25.6921H33.634L33.628 15.9001C33.616 10.0371 30.738 7.66008 27.171 7.67008H27.17ZM78.511 15.7201C78.933 12.3821 80.733 10.3701 83.441 10.3701C86.814 10.3701 88.143 12.9441 88.457 15.7201H78.511ZM83.516 7.59808C78.81 7.60508 75.602 11.6851 75.606 17.0861C75.612 22.4971 78.967 25.8611 83.843 25.8501C86.734 25.8501 88.58 24.8001 90.56 22.4481L90.686 22.3121L88.874 20.6021L88.754 20.7301C87.247 22.4201 85.931 23.0341 83.907 23.0341C80.853 23.0341 78.894 21.6721 78.493 18.3241L91.139 18.3131L91.164 18.1501C91.187 17.7351 91.184 17.4501 91.187 17.2201C91.184 11.4651 88.287 7.59408 83.516 7.59808ZM97.435 9.76908V7.78108H94.474L94.492 25.6261H97.448L97.442 15.4121C97.439 12.4191 99.852 10.8041 102.145 10.7511C102.465 10.7651 102.786 10.7971 103.08 10.8591V7.67608C102.769 7.63296 102.455 7.6139 102.141 7.61908C99.991 7.61108 98.436 8.36208 97.435 9.76908ZM9.154 11.7351C5.731 10.8651 3.524 10.2491 3.524 7.23908C3.522 4.73008 5.58 3.20008 8.669 3.19508C10.831 3.19508 12.919 4.12508 14.179 5.78508L16.351 3.77208C15.454 2.09208 12.566 0.126079 8.62 0.132079C4.052 0.140079 0.618 3.22708 0.618 7.32008C0.623 12.4431 4.264 13.7001 7.962 14.6461C11.547 15.5621 14.058 16.5161 14.058 19.4501C14.06 22.1551 12.048 22.9021 8.687 22.9021C5.229 22.9091 3.237 20.8971 2.211 19.2911L0 21.3691C0.762 23.5041 4.386 25.9721 8.725 25.9721C13.758 25.9571 17.01 23.7891 16.999 19.3251C17.007 14.3311 13.199 12.7411 9.154 11.7351ZM119.03 0.354079L119.055 25.5901L121.969 25.5751L121.949 0.348079L119.029 0.354079H119.03ZM47.12 7.84608L47.125 18.6181C47.132 21.6201 45.758 22.7211 43.463 22.7651C41.155 22.7281 39.791 21.6201 39.785 18.6351L39.775 7.84908H36.835L36.848 18.7741C36.854 23.6621 39.327 25.9041 43.463 25.8961C47.6 25.8891 50.063 23.6491 50.06 18.7671L50.05 7.83508L47.12 7.84508V7.84608ZM71.556 22.3031C70.33 21.6891 69.666 20.8881 69.586 18.8961L69.58 10.9201L73.884 10.9161L73.876 7.81408L69.573 7.82108L69.57 0.410079H66.616L66.63 7.82208H64.508V10.9321H66.632L66.642 18.9031C66.644 22.2451 67.899 24.0181 69.769 25.0611C71.694 26.1281 73.897 25.8551 73.897 25.8551L73.892 22.7371C73.562 22.7371 72.699 22.8921 71.556 22.3041V22.3031ZM59.92 22.3111C58.695 21.6891 58.025 20.8971 57.943 18.9081V10.9411L62.244 10.9311V7.82408L57.936 7.83108L57.934 0.421079H54.992L54.997 7.83108H52.874L52.882 10.9461H55.005L55.008 18.9081C55.017 22.2621 56.268 24.0261 58.129 25.0741C60.054 26.1491 62.261 25.8741 62.261 25.8741V22.7471C61.929 22.7471 61.065 22.9001 59.92 22.3111ZM115.132 7.75108H110.826V7.59308C110.897 5.60508 111.561 4.22308 112.786 3.58908C113.932 3.00108 114.8 3.15608 115.129 3.15608V0.0180791C115.129 0.0180791 112.909 -0.199921 110.994 0.878079C109.145 1.93308 107.887 4.45408 107.89 7.80208L107.887 7.75608H105.764L105.768 10.8591H107.89L107.904 25.6011L110.846 25.5931L110.829 10.8511L115.137 10.8471L115.132 7.75208V7.75108Z" fill="#B2B2B2"/>
</svg>

<svg width="139" height="35" fill="none" xmlns="http://www.w3.org/2000/svg"><path fill-rule="evenodd" clip-rule="evenodd" d="M138.978 7.741l-2.904.003.01 10.867c.005 2.998-1.724 4.091-3.984 4.136-2.257-.045-3.451-1.499-3.456-4.47l-.002-10.525h-2.877l.008 10.53c.008 5.845 2.836 7.51 6.335 7.51 1.974 0 3.325-.859 3.984-1.648l-.003 2.643c-.053 1.992-.7 3.996-1.892 4.627-1.127.588-1.97.437-2.286.427v3.128s2.155.266 4.043-.807c1.821-1.05 3.047-4.232 3.041-7.584l-.017-18.837zM27.17 7.671c-2.01 0-3.384.87-4.06 1.64L23.095.456l-2.951.005.022 25.248 2.958-.008-.011-10.154c0-2.983 1.76-4.793 4.062-4.84 2.31.044 3.53 2.2 3.534 5.192l.01 9.792h2.915l-.006-9.792c-.012-5.863-2.89-8.24-6.457-8.23h-.001zm51.341 8.05c.422-3.339 2.222-5.35 4.93-5.35 3.373 0 4.702 2.573 5.016 5.35h-9.946zm5.005-8.123c-4.706.007-7.914 4.087-7.91 9.488.006 5.411 3.361 8.775 8.237 8.764 2.891 0 4.737-1.05 6.717-3.402l.126-.136-1.812-1.71-.12.128c-1.507 1.69-2.823 2.304-4.847 2.304-3.054 0-5.013-1.362-5.414-4.71l12.646-.01.025-.164c.023-.415.02-.7.023-.93-.003-5.755-2.9-9.626-7.671-9.622zM97.435 9.77V7.781h-2.961l.018 17.845h2.956l-.006-10.214c-.003-2.993 2.41-4.608 4.703-4.66.32.013.641.045.935.107V7.676a6.105 6.105 0 00-.939-.057c-2.15-.008-3.705.743-4.706 2.15zM9.154 11.735c-3.423-.87-5.63-1.486-5.63-4.496C3.522 4.73 5.58 3.2 8.669 3.195c2.162 0 4.25.93 5.51 2.59l2.172-2.013C15.454 2.092 12.566.126 8.62.132 4.052.14.618 3.227.618 7.32c.005 5.123 3.646 6.38 7.344 7.326 3.585.916 6.096 1.87 6.096 4.804.002 2.705-2.01 3.452-5.371 3.452-3.458.007-5.45-2.005-6.476-3.61L0 21.368c.762 2.135 4.386 4.603 8.725 4.603 5.033-.015 8.285-2.183 8.274-6.647.008-4.994-3.8-6.584-7.845-7.59zM119.03.355l.025 25.235 2.914-.015-.02-25.227-2.92.006h.001zm-71.91 7.49l.005 10.772c.007 3.002-1.367 4.103-3.662 4.147-2.308-.037-3.672-1.145-3.678-4.13l-.01-10.786h-2.94l.013 10.925c.006 4.888 2.479 7.13 6.615 7.122 4.137-.007 6.6-2.247 6.597-7.129l-.01-10.932-2.93.01v.001zm24.436 14.457c-1.226-.614-1.89-1.415-1.97-3.407l-.006-7.976 4.304-.004-.008-3.102-4.303.007L69.57.41h-2.954l.014 7.411h-2.122v3.11h2.124l.01 7.971c.002 3.342 1.257 5.115 3.127 6.158 1.925 1.067 4.128.794 4.128.794l-.005-3.118c-.33 0-1.193.155-2.336-.433zm-11.636.008c-1.225-.622-1.895-1.414-1.977-3.403V10.94l4.301-.01V7.824l-4.308.007-.002-7.41h-2.942l.005 7.41h-2.123l.008 3.115h2.123l.003 7.962c.009 3.354 1.26 5.118 3.121 6.166 1.925 1.075 4.132.8 4.132.8v-3.127c-.332 0-1.196.153-2.341-.436zm55.212-14.56h-4.306v-.158c.071-1.988.735-3.37 1.96-4.004 1.146-.588 2.014-.433 2.343-.433V.018s-2.22-.218-4.135.86c-1.849 1.055-3.107 3.576-3.104 6.924l-.003-.046h-2.123l.004 3.103h2.122l.014 14.742 2.942-.008-.017-14.742 4.308-.004-.005-3.095z" fill="#B2B2B2"/></svg>
